X:40
T:Saint Mary's
Z: id:dc-polka-33
M:2/4
L:1/8
K:G Major
GB AB/A/|Gg e/f/g/e/|dB AG/A/|BA G/F/E/D/|!
GB AB/A/|Gg e/f/g/e/|dB AG/A/|BG G2:|!
Bd g>d|Bd g>d|Bd g>e|f3 g|!
a/b/a/g/ f/g/f/e/|dB AB/A/|Ge d/B/A/B/|G2 G2:|!

